symbolic/32x32/apps/friture.svg

<svg xmlns="http://www.w3.org/2000/svg" width="32" height="32" version="1.1">
 <g transform="translate(0,16)">
  <g transform="matrix(0.07871412,0,0,0.07871412,-13.603644,-21.886191)">
   <path style="opacity:0.2" d="m 414.19825,100.18778 c -76.73103,0 -139.75125,63.0655 -139.75125,139.85166 v 0.0248 0.0497 c 0.018,10.11458 3.67973,19.64551 5.85605,29.47513 l -53.69703,79.93297 c -6.38656,7.84658 -12.1804,17.67842 -14.49126,29.12749 -2.62783,13.01952 -0.41221,24.95221 2.25806,33.96965 l 0.0248,0.0745 0.0248,0.0993 c 8.07733,26.86678 34.71801,49.70836 60.44639,54.2074 11.35819,2.20929 25.37766,2.66249 37.76657,-2.01136 12.68201,-4.78438 19.99517,-11.65681 26.15374,-17.03448 l 78.73415,-68.73391 c 75.12991,-1.89196 136.42622,-63.57182 136.42622,-139.18121 0,-76.78616 -63.02023,-139.85166 -139.75127,-139.85166 z"/>
   <path style="fill:#f16d00" d="M 414.19825,87.483575 C 337.46722,87.48358 274.447,150.54908 274.447,227.33524 v 0.0248 0.0497 c 0.018,10.11458 3.67973,19.64551 5.85605,29.47513 l -53.69703,79.93297 c -6.38656,7.84658 -12.1804,17.67842 -14.49126,29.12749 -2.62783,13.01952 -0.41221,24.95221 2.25806,33.96965 l 0.0248,0.0745 0.0248,0.0993 c 8.07733,26.86678 34.71801,49.70836 60.44639,54.2074 11.35819,2.20929 25.37766,2.66249 37.76657,-2.01136 12.68201,-4.78438 19.99517,-11.65681 26.15374,-17.03448 l 78.73415,-68.73391 c 75.12991,-1.89196 136.42622,-63.57182 136.42622,-139.18121 0,-76.78616 -63.02023,-139.85166 -139.75127,-139.851665 z"/>
   <path style="fill:#325481" d="m 328.50414,253.37672 -70.86418,105.45626 c -9.27043,10.33939 -10.22122,18.15358 -6.70577,30.01669 5.13936,17.08224 15.29586,25.37124 30.70245,27.87022 15.25872,3.12471 20.88722,-0.64229 32.10821,-10.43342 l 98.55949,-86.00038 2.18289,1.56091 z"/>
   <circle style="opacity:0.2" cx="414.203" cy="239.934" r="101.634"/>
   <circle style="fill:#bfbfbf" cx="414.203" cy="227.23" r="101.634"/>
   <path style="opacity:0.4" d="M 326.92566,174.77526 321.9489,184.833 c 5.01714,37.61834 17.37574,64.09942 43.04262,87.20976 24.39389,21.96412 58.3618,36.2733 102.43864,41.88906 l 11.62575,-8.32575 c -46.09326,-4.80569 -83.93273,-19.00763 -107.80364,-40.50087 -23.8709,-21.49326 -39.53521,-54.40398 -44.32661,-90.32994 z"/>
   <path style="opacity:0.2;fill:#ffffff" transform="matrix(12.704201,0,0,12.704201,172.82343,74.779353)" d="M 19 1 C 12.960184 1.0000004 8 5.9636575 8 12.007812 L 8 12.009766 L 8 12.013672 C 8.0002323 12.144182 8.0173821 12.272043 8.03125 12.400391 C 8.3520805 6.6363847 13.165078 2 19 2 C 24.873135 2 29.711245 6.6971594 29.974609 12.513672 C 29.982443 12.345038 30 12.178332 30 12.007812 C 30 5.9636575 25.039816 1.0000004 19 1 z M 8.2753906 14.609375 L 4.234375 20.626953 C 3.7316625 21.24459 3.2756473 22.016765 3.09375 22.917969 C 2.9862645 23.450503 2.9832705 23.957688 3.0332031 24.423828 C 3.0480671 24.256992 3.0589612 24.090329 3.09375 23.917969 C 3.2756473 23.016765 3.7316625 22.24459 4.234375 21.626953 L 8.4609375 15.333984 C 8.4069899 15.090323 8.3399202 14.850542 8.2753906 14.609375 z"/>
   <path style="opacity:0.2;fill:#ffffff" transform="matrix(12.704201,0,0,12.704201,172.82343,74.779353)" d="M 19 4 A 8.0000005 8.0000005 0 0 0 11 12 A 8.0000005 8.0000005 0 0 0 11.021484 12.576172 A 8.0000005 8.0000005 0 0 1 19 5 A 8.0000005 8.0000005 0 0 1 26.978516 12.423828 A 8.0000005 8.0000005 0 0 0 27 12 A 8.0000005 8.0000005 0 0 0 19 4 z"/>
  </g>
 </g>
</svg>

<svg xmlns="http://www.w3.org/2000/svg" width="32" height="32"><g transform="matrix(.07871 0 0 .07871 -13.604 -5.886)"><path style="opacity:.2" d="M414.198 100.188c-76.73 0-139.751 63.065-139.751 139.851V240.114c.018 10.115 3.68 19.645 5.856 29.475l-53.697 79.933c-6.387 7.847-12.18 17.678-14.491 29.128-2.628 13.02-.412 24.952 2.258 33.97l.025.074.024.099C222.5 439.66 249.14 462.501 274.87 467c11.358 2.21 25.377 2.663 37.766-2.011 12.682-4.784 19.996-11.657 26.154-17.034l78.734-68.734c75.13-1.892 136.426-63.572 136.426-139.182 0-76.786-63.02-139.851-139.75-139.851z"/><path style="fill:#f16d00" d="M414.198 87.484c-76.73 0-139.751 63.065-139.751 139.851V227.41c.018 10.114 3.68 19.645 5.856 29.475l-53.697 79.933c-6.387 7.846-12.18 17.678-14.491 29.127-2.628 13.02-.412 24.953 2.258 33.97l.025.074.024.1c8.078 26.867 34.718 49.708 60.447 54.207 11.358 2.21 25.377 2.663 37.766-2.011 12.682-4.785 19.996-11.657 26.154-17.035l78.734-68.734c75.13-1.892 136.426-63.571 136.426-139.18 0-76.787-63.02-139.852-139.75-139.852z"/><path style="fill:#325481" d="M328.504 253.377 257.64 358.833c-9.27 10.34-10.221 18.154-6.706 30.017 5.14 17.082 15.296 25.37 30.703 27.87 15.258 3.125 20.887-.642 32.108-10.434l98.56-86 2.182 1.561z"/><circle style="opacity:.2" cx="414.203" cy="239.934" r="101.634"/><circle style="fill:#bfbfbf" cx="414.203" cy="227.23" r="101.634"/><path style="opacity:.4" d="m326.926 174.775-4.977 10.058c5.017 37.618 17.376 64.1 43.043 87.21 24.393 21.964 58.361 36.273 102.438 41.889l11.626-8.326c-46.093-4.806-83.933-19.008-107.804-40.5-23.87-21.494-39.535-54.405-44.326-90.33z"/><path style="opacity:.2;fill:#fff" transform="translate(172.823 74.78) scale(12.7042)" d="M19 1C12.96 1 8 5.964 8 12.008v.006c0 .13.017.258.031.386C8.352 6.636 13.165 2 19 2c5.873 0 10.711 4.697 10.975 10.514.007-.169.025-.336.025-.506C30 5.964 25.04 1 19 1zM8.275 14.61l-4.04 6.017c-.503.618-.96 1.39-1.141 2.291a4.919 4.919 0 0 0-.06 1.506c.014-.167.025-.334.06-.506.182-.901.638-1.673 1.14-2.291l4.227-6.293c-.054-.244-.121-.483-.186-.725z"/><path style="opacity:.2;fill:#fff" transform="translate(172.823 74.78) scale(12.7042)" d="M19 4a8 8 0 0 0-8 8 8 8 0 0 0 .021.576A8 8 0 0 1 19 5a8 8 0 0 1 7.979 7.424A8 8 0 0 0 27 12a8 8 0 0 0-8-8z"/></g></svg>
